icons-dark/actions/24/run-build.svg

<?xml version="1.0" encoding="UTF-8" standalone="no"?>
<!-- Created with Inkscape (http://www.inkscape.org/) -->

<svg
   xmlns:dc="http://purl.org/dc/elements/1.1/"
   xmlns:cc="http://creativecommons.org/ns#"
   xmlns:rdf="http://www.w3.org/1999/02/22-rdf-syntax-ns#"
   xmlns:svg="http://www.w3.org/2000/svg"
   xmlns="http://www.w3.org/2000/svg"
   xmlns:sodipodi="http://sodipodi.sourceforge.net/DTD/sodipodi-0.dtd"
   xmlns:inkscape="http://www.inkscape.org/namespaces/inkscape"
   width="24"
   height="24"
   id="svg3049"
   version="1.1"
   inkscape:version="0.91 r13725"
   sodipodi:docname="run-build.svg"
   inkscape:export-filename="/home/uri/.kde/share/icons/NITRUX-KDE/16x16/actions/view-right-new.png"
   inkscape:export-xdpi="30"
   inkscape:export-ydpi="30">
  <defs
     id="defs3051" />
  <sodipodi:namedview
     id="base"
     pagecolor="#ffffff"
     bordercolor="#666666"
     borderopacity="1.0"
     inkscape:pageopacity="0.0"
     inkscape:pageshadow="2"
     inkscape:zoom="24.075123"
     inkscape:cx="10.243266"
     inkscape:cy="13.166618"
     inkscape:document-units="px"
     inkscape:current-layer="layer1"
     showgrid="true"
     fit-margin-top="0"
     fit-margin-left="0"
     fit-margin-right="0"
     fit-margin-bottom="0"
     inkscape:window-width="2560"
     inkscape:window-height="955"
     inkscape:window-x="0"
     inkscape:window-y="35"
     inkscape:window-maximized="1"
     inkscape:showpageshadow="false"
     borderlayer="true">
    <sodipodi:guide
       position="3,21"
       orientation="18,0"
       id="guide4067" />
    <sodipodi:guide
       position="3,3"
       orientation="0,18"
       id="guide4069" />
    <sodipodi:guide
       position="21,3"
       orientation="-18,0"
       id="guide4071" />
    <sodipodi:guide
       position="21,21"
       orientation="0,-18"
       id="guide4073" />
    <sodipodi:guide
       position="4,20"
       orientation="16,0"
       id="guide4077" />
    <sodipodi:guide
       position="4,4"
       orientation="0,16"
       id="guide4079" />
    <sodipodi:guide
       position="20,4"
       orientation="-16,0"
       id="guide4081" />
    <sodipodi:guide
       position="20,20"
       orientation="0,-16"
       id="guide4083" />
    <inkscape:grid
       type="xygrid"
       id="grid4085"
       originx="0.99999557"
       originy="0.99997045" />
  </sodipodi:namedview>
  <metadata
     id="metadata3054">
    <rdf:RDF>
      <cc:Work
         rdf:about="">
        <dc:format>image/svg+xml</dc:format>
        <dc:type
           rdf:resource="http://purl.org/dc/dcmitype/StillImage" />
        <dc:title></dc:title>
      </cc:Work>
    </rdf:RDF>
  </metadata>
  <g
     inkscape:label="Capa 1"
     inkscape:groupmode="layer"
     id="layer1"
     transform="translate(-420.71429,-524.79071)">
    <path
       inkscape:connector-curvature="0"
       style="opacity:1;fill:#f2f2f2;fill-opacity:1;stroke:none;stroke-width:2.79999995;stroke-miterlimit:4;stroke-dasharray:none;stroke-opacity:0.55026455"
       d="m 430.71429,533.79074 0,6 5,-3 -5,-3 z"
       id="rect4144" />
    <path
       style="opacity:1;fill:#f2f2f2;fill-opacity:1;stroke:none"
       d="M 11,3 C 10.32479,3.004 9.65279,3.092995 9,3.265625 l 0,1.0332031 0,0.011719 A 7,7 0 0 0 7.6835938,4.8554688 L 7.6757838,4.8476588 6.943362,4.115237 C 5.776412,4.803287 4.803287,5.776412 4.115237,6.943362 l 0.5214844,0.5214844 0.21875,0.21875 A 7,7 0 0 0 4.3085938,9 L 4.2949219,9 3.2597656,9 C 3.0891456,9.65304 3.00187,10.32505 3,11 c 0.004,0.67521 0.093005,1.34721 0.265625,2 l 1.0332031,0 0.011719,0 a 7,7 0 0 0 0.5449219,1.316406 l -0.21875,0.21875 -0.5214844,0.521485 c 0.68805,1.16696 1.661165,2.140075 2.828125,2.828125 l 0.5214844,-0.521485 0.21875,-0.21875 A 7,7 0 0 0 9,17.691406 L 9,18 9,18.740234 c 0.65304,0.17062 1.32504,0.257896 2,0.259766 0.67496,-0.0019 1.34696,-0.08915 2,-0.259766 L 13,18 13,17.691406 a 7,7 0 0 0 1.316406,-0.546875 l 0.21875,0.21875 0.521485,0.521485 c 1.16696,-0.68805 2.140075,-1.661165 2.828125,-2.828125 l -0.521485,-0.521485 -0.21875,-0.21875 A 7,7 0 0 0 17.689453,13 l 0.01172,0 1.033203,0 C 18.907005,12.34721 18.996,11.67521 19,11 18.99813,10.32505 18.910854,9.65304 18.740234,9 l -1.035156,0 -0.01367,0 A 7,7 0 0 0 17.144531,7.6835938 l 0.21875,-0.21875 0.521485,-0.5214844 c -0.68805,-1.16695 -1.661175,-2.140075 -2.828125,-2.828125 l -0.732422,0.7324218 -0.0078,0.00781 A 7,7 0 0 0 13,4.3105469 L 13,4.2988281 13,3.265625 C 12.34721,3.092995 11.67521,3.004 11,3 Z m 0,1 c 0.33491,0.0012 0.66956,0.027372 1,0.076172 L 12,4.080082 12,5 12,5.085937 a 6,6 0 0 1 2.470703,1.0292969 l 0.06445,-0.064453 0.650391,-0.6503906 0.002,-0.00195 c 0.53734,0.40067 1.013946,0.8758094 1.416016,1.4121094 l -0.0039,0.00391 -0.65039,0.6503907 -0.0625,0.0625 A 6,6 0 0 1 16.910156,10 L 17,10 l 0.921875,0 0.0039,0 c 0.0483,0.33106 0.07372,0.66455 0.07422,1 -0.0012,0.33491 -0.02737,0.66955 -0.07617,1 l -0.0039,0 L 17,12 16.91406,12 a 6,6 0 0 1 -1.029296,2.470703 l 0.06445,0.06445 0.65039,0.650391 0.002,0.002 c -0.400669,0.53734 -0.875809,1.013956 -1.412109,1.416016 l -0.0039,-0.0039 -0.650391,-0.65039 -0.0625,-0.0625 A 6,6 0 0 1 12,16.910156 L 12,17 l 0,0.921875 0,0.0039 c -0.33106,0.0483 -0.66455,0.07372 -1,0.07422 -0.33545,-5e-4 -0.66894,-0.02592 -1,-0.07422 l 0,-0.0039 L 10,17 10,16.910156 A 6,6 0 0 1 7.5273438,15.886719 l -0.0625,0.0625 -0.6503907,0.65039 -0.00391,0.0039 C 6.2742469,16.201456 5.7991075,15.72484 5.3984375,15.1875 l 0.00195,-0.002 0.6503906,-0.650391 0.064453,-0.06445 A 6,6 0 0 1 5.0859375,12 L 5,12 4.0800781,12 4.0761719,12 C 4.0273719,11.66955 4.0012,11.33491 4,11 4.0005,10.66455 4.025919,10.33106 4.074219,10 L 4.078125,10 5,10 5.0898438,10 A 6,6 0 0 1 6.1132812,7.5273438 l -0.0625,-0.0625 -0.6503906,-0.6503907 -0.00391,-0.00391 C 5.7985544,6.2742469 6.27516,5.7991075 6.8125,5.3984375 l 0.00195,0.00195 0.6503907,0.6503906 0.064453,0.064453 A 6,6 0 0 1 10,5.0859375 L 10,5 10,4.0800781 10,4.0761719 C 10.33044,4.0273719 10.66509,4.0012 11,4 Z"
       transform="translate(421.71429,525.79074)"
       id="path3344"
       inkscape:connector-curvature="0" />
  </g>
</svg>

<svg xmlns="http://www.w3.org/2000/svg" viewBox="0 0 24 24">
  <defs id="defs3051">
    <style type="text/css" id="current-color-scheme">
      .ColorScheme-Text {
        color:#f2f2f2
      }
      </style>
  </defs>
  <a transform="translate(1,1)">
 <path 
     style="fill:currentColor;fill-opacity:1;stroke:none" 
     d="M 11 3 C 10.32479 3.004 9.65279 3.092995 9 3.265625 L 9 4.2988281 L 9 4.3105469 A 7 7 0 0 0 7.6835938 4.8554688 L 7.6757812 4.8476562 L 6.9433594 4.1152344 C 5.7764094 4.8032844 4.8032844 5.7764094 4.1152344 6.9433594 L 4.6367188 7.4648438 L 4.8554688 7.6835938 A 7 7 0 0 0 4.3085938 9 L 4.2949219 9 L 3.2597656 9 C 3.0891456 9.65304 3.00187 10.32505 3 11 C 3.004 11.67521 3.093005 12.34721 3.265625 13 L 4.2988281 13 L 4.3105469 13 A 7 7 0 0 0 4.8554688 14.316406 L 4.6367188 14.535156 L 4.1152344 15.056641 C 4.8032844 16.223601 5.7763994 17.196716 6.9433594 17.884766 L 7.4648438 17.363281 L 7.6835938 17.144531 A 7 7 0 0 0 9 17.691406 L 9 18 L 9 18.740234 C 9.65304 18.910854 10.32504 18.99813 11 19 C 11.67496 18.99813 12.34696 18.910854 13 18.740234 L 13 18 L 13 17.691406 A 7 7 0 0 0 14.316406 17.144531 L 14.535156 17.363281 L 15.056641 17.884766 C 16.223601 17.196716 17.196716 16.223601 17.884766 15.056641 L 17.363281 14.535156 L 17.144531 14.316406 A 7 7 0 0 0 17.689453 13 L 17.701172 13 L 18.734375 13 C 18.907005 12.34721 18.996 11.67521 19 11 C 18.99813 10.32505 18.910854 9.65304 18.740234 9 L 17.705078 9 L 17.691406 9 A 7 7 0 0 0 17.144531 7.6835938 L 17.363281 7.4648438 L 17.884766 6.9433594 C 17.196716 5.7764094 16.223591 4.8032844 15.056641 4.1152344 L 14.324219 4.8476562 L 14.316406 4.8554688 A 7 7 0 0 0 13 4.3105469 L 13 4.2988281 L 13 3.265625 C 12.34721 3.092995 11.67521 3.004 11 3 z M 11 4 C 11.33491 4.0012 11.66956 4.0273719 12 4.0761719 L 12 4.0800781 L 12 5 L 12 5.0859375 A 6 6 0 0 1 14.470703 6.1152344 L 14.535156 6.0507812 L 15.185547 5.4003906 L 15.1875 5.3984375 C 15.72484 5.7991075 16.201446 6.2742469 16.603516 6.8105469 L 16.599609 6.8144531 L 15.949219 7.4648438 L 15.886719 7.5273438 A 6 6 0 0 1 16.910156 10 L 17 10 L 17.921875 10 L 17.925781 10 C 17.974081 10.33106 17.9995 10.66455 18 11 C 17.9988 11.33491 17.972628 11.66955 17.923828 12 L 17.919922 12 L 17 12 L 16.914062 12 A 6 6 0 0 1 15.884766 14.470703 L 15.949219 14.535156 L 16.599609 15.185547 L 16.601562 15.1875 C 16.200893 15.72484 15.725753 16.201456 15.189453 16.603516 L 15.185547 16.599609 L 14.535156 15.949219 L 14.472656 15.886719 A 6 6 0 0 1 12 16.910156 L 12 17 L 12 17.921875 L 12 17.925781 C 11.66894 17.974081 11.33545 17.9995 11 18 C 10.66455 17.9995 10.33106 17.974081 10 17.925781 L 10 17.921875 L 10 17 L 10 16.910156 A 6 6 0 0 1 7.5273438 15.886719 L 7.4648438 15.949219 L 6.8144531 16.599609 L 6.8105469 16.603516 C 6.2742469 16.201456 5.7991075 15.72484 5.3984375 15.1875 L 5.4003906 15.185547 L 6.0507812 14.535156 L 6.1152344 14.470703 A 6 6 0 0 1 5.0859375 12 L 5 12 L 4.0800781 12 L 4.0761719 12 C 4.0273719 11.66955 4.0012 11.33491 4 11 C 4.0005 10.66455 4.0259187 10.33106 4.0742188 10 L 4.078125 10 L 5 10 L 5.0898438 10 A 6 6 0 0 1 6.1132812 7.5273438 L 6.0507812 7.4648438 L 5.4003906 6.8144531 L 5.3964844 6.8105469 C 5.7985544 6.2742469 6.27516 5.7991075 6.8125 5.3984375 L 6.8144531 5.4003906 L 7.4648438 6.0507812 L 7.5292969 6.1152344 A 6 6 0 0 1 10 5.0859375 L 10 5 L 10 4.0800781 L 10 4.0761719 C 10.33044 4.0273719 10.66509 4.0012 11 4 z M 9 8 L 9 14 L 14 11 L 9 8 z "
     class="ColorScheme-Text"
     />
 </a>
</svg>
